X:1
T:Title
%%score [ ( 1 2 3 ) ( 4 5 6 ) ]
L:1/8
Q:1/4=100
M:4/4
K:Bb
V:1 treble nm="Midi_74"
V:2 treble 
V:3 treble 
V:4 bass nm="Midi_69"
V:5 bass 
V:6 bass 
V:1
"^Vox dilecti (D.C.M.)""^John Bacchus Dykes\n(1823-76)""^Horatio Bonar\n(1808-89)""^I heard the voice of Jesus say" D2 | %1
 D2 G2 G2 A2 | B3 B[Q:1/4=40] !fermata!A2[Q:1/4=100] A2 | G2 G2 G2 G2 | ^F6 || D2 | D2 G2 G2 A2 | %7
 B3 c A2 d2 | c2 B2 A2 G2 | D6 || D2 | D2 =B2 A2 G2 | G2 =E2 (D2 D2) | G2 (A=B) c2 B2 | A6 || A2 | %16
 d3 c =B2 B2 | =e3 d c2 A2 | G2 =B2 d3 ^F | G6 |] %20
V:2
 D2 | D2 G2 G2 A2 | B3 B A2 E2 | D2 D2 C2 E2 | D6 || D2 | D2 D2 E2 E2 | D3 D D2 A2 | C2 D2 E2 =E2 | %9
w: |||||||||
w: |||||||||
w: |||||||||
 D6 || (DC) | =B,2 B,2 C2 D2 | =E2 C2 (=B,2 D2) | =B,2 (CD) (=E^F) G2 | ^F6 || D2 | D3 D D2 =E2 | %17
w: ||||||||
w: ||||||||
w: ||||||||
 =E3 E E2 (E^F) | G2 G2 ^F3 D | D6 |] %20
w: * * place And *|||
w: * re- vived, And *|||
w: * * walk Till *|||
V:3
 x2 | [B,D]6 [CF]2 | [DF]4 [CF]2 x2 | x8 | x6 || x2 | x8 | x8 | x8 | x6 || x2 | x8 | x8 | x8 | %14
 x6 || x2 | x8 | x8 | x8 | x6 |] %20
V:4
 D,2 | D,2 G,2 G,2 A,2 | B,3 B, A,2 C2 | B,2 B,2 G,2 C2 | A,6 || A,2 | B,2 B,2 B,2 C2 | %7
w: I|heard the voice of|Je- sus say, 'Come|un- to me and|rest;|Lay|down, thou wea- ry|
w: I|heard the voice of|Je- sus say, 'Be-|hold, I free- ly|give|The|liv- ing wa- ter,|
w: I|heard the voice of|Je- sus say, 'I|am this dark world's|Light;|Look|un- to Me, thy|
 B,2 G,2 A,2 A,2 | G,2 G,2 A,2 (A,G,) | ^F,6 || (=B,A,) | G,3 D, (=E,^F,) G,2 | %12
w: one, lay down Thy|head up- on My *|breast':|I *|came to Je\- * sus|
w: thir- sty one, Stoop|down and drink, and *|live':|I *|came to Je\- * sus.|
w: morn shall rise, And|all thy day be *|bright':|I *|looked to Je\- * sus,|
 G,2 (G,A,) (=B,2 A,2) | G,2 (G,^F,) (G,A,) (=B,C) | D6 || (^F,G,) | A,3 A, G,2 (^G,A,) | %17
w: as I * was *|wea- ry and worn, * and *|sad;|I *|found in Him a *|
w: and I * drank of|that life * giv * ing *|stream;|My *|thirst was quenched, my *|
w: and I * found in|Him my * Star, * my *|Sun;|And *|in that light of *|
 =B,3 B, A,2 C2 | =B,2 D2 C3 C | =B,6 |] %20
w: rest- ing\- * *|He has made me|glad.|
w: soul * * *|Now I live in|Him.|
w: life I'll * *|travel- ling days are|done.|
V:5
 D,2 | D,2 G,2 G,2 A,2 | B,3 B, !fermata!A,2 F,2 | G,2 G,2 E,2 C,2 | D,6 || ^F,2 | %6
 G,2 G,2 E,2 C,2 | G,,2 G,2 F,2 F,2 | E,2 D,2 C,2 ^C,2 | D,6 || D,2 | G,2 G,,2 (G,,A,,) =B,,2 | %12
 C,2 (=E,^F,) (G,2 F,2) | =E,2 (E,D,) C,2 G,2 | D,6 || (D,=E,) | ^F,3 F, G,2 (=E,F,) | %17
 ^G,3 G, A,2 C,2 | D,2 D,2 D,3 D, | G,,6 |] %20
V:6
 x2 | [G,,G,]6 [F,,F,]2- | [B,,F,]4 [F,,F,]2 x2 | x8 | x6 || x2 | x8 | x8 | x8 | x6 || x2 | x8 | %12
 x8 | x8 | x6 || x2 | x8 | x8 | x8 | x6 |] %20

